cookie-law-info/lite/admin/dist/img/help.svg

<svg xmlns="http://www.w3.org/2000/svg" fill="none" viewBox="0 0.5 19 19">
<path fill-rule="evenodd" clip-rule="evenodd" d="M0 10C0 4.756 4.256 0.5 9.5 0.5C14.744 0.5 19 4.756 19 10C19 15.244 14.744 19.5 9.5 19.5C4.256 19.5 0 15.244 0 10ZM10.6944 16.0556H8.75V14.1111H10.6944V16.0556ZM9.5 18C5.09 18 1.5 14.41 1.5 10C1.5 5.59 5.09 2 9.5 2C13.91 2 17.5 5.59 17.5 10C17.5 14.41 13.91 18 9.5 18ZM5.83333 8.27779C5.83333 6.12917 7.57361 4.3889 9.72222 4.3889C11.8708 4.3889 13.6111 6.12917 13.6111 8.27779C13.6111 9.52507 12.843 10.1963 12.0952 10.8498C11.3857 11.4698 10.6944 12.0739 10.6944 13.1389H8.75C8.75 11.3682 9.66595 10.6661 10.4713 10.0489C11.103 9.56463 11.6667 9.13258 11.6667 8.27779C11.6667 7.20834 10.7917 6.33334 9.72222 6.33334C8.65278 6.33334 7.77778 7.20834 7.77778 8.27779H5.83333Z" fill="#087CE1"/>
</svg>

<svg xmlns="http://www.w3.org/2000/svg" fill="none" viewBox="0 0.5 19 19"><path fill-rule="evenodd" clip-rule="evenodd" d="M0 10C0 4.756 4.256.5 9.5.5S19 4.756 19 10s-4.256 9.5-9.5 9.5S0 15.244 0 10zm10.694 6.056H8.75V14.11h1.944v1.945zM9.5 18c-4.41 0-8-3.59-8-8s3.59-8 8-8 8 3.59 8 8-3.59 8-8 8zM5.833 8.278a3.888 3.888 0 0 1 3.89-3.89 3.888 3.888 0 0 1 3.888 3.89c0 1.247-.768 1.918-1.516 2.572-.71.62-1.4 1.224-1.4 2.289H8.75c0-1.77.916-2.473 1.721-3.09.632-.484 1.196-.916 1.196-1.771a1.95 1.95 0 0 0-1.945-1.945 1.95 1.95 0 0 0-1.944 1.945H5.833z" fill="#087CE1"/></svg>
